icons/svg/icons8/washing_machine.svg

<svg width="26" height="26" viewBox="0 0 26 26" fill="none" xmlns="http://www.w3.org/2000/svg">
<path d="M21 0H5C3.343 0 2 1.344 2 3V23C2 24.656 3.343 26 5 26H21C22.657 26 24 24.656 24 23V3C24 1.344 22.657 0 21 0ZM13 21.059C9.103 21.059 5.941 17.899 5.941 14C5.941 10.101 9.103 6.941 13 6.941C16.896 6.941 20.059 10.101 20.059 14C20.059 17.899 16.896 21.059 13 21.059ZM20.5 5.121C19.604 5.121 18.879 4.395 18.879 3.5C18.879 2.605 19.605 1.879 20.5 1.879C21.395 1.879 22.121 2.605 22.121 3.5C22.121 4.395 21.395 5.121 20.5 5.121ZM15.5 5.121C14.604 5.121 13.879 4.395 13.879 3.5C13.879 2.605 14.605 1.879 15.5 1.879C16.395 1.879 17.121 2.605 17.121 3.5C17.121 4.395 16.395 5.121 15.5 5.121Z" fill="#333333"/>
<path d="M13.0001 19.016C10.1331 19.016 7.80713 16.691 7.80713 13.823C10.1611 12.298 10.7131 13.965 13.0001 13.965C15.2871 13.965 16.1081 12.402 18.1931 13.823C18.1931 16.69 15.8671 19.016 13.0001 19.016Z" fill="#333333"/>
<path d="M13 9.188C15.653 9.188 17.813 11.347 17.813 14.001C17.813 16.655 15.653 18.813 13 18.813C10.347 18.813 8.18801 16.653 8.18801 14C8.18801 11.347 10.347 9.188 13 9.188ZM13 8.188C9.79001 8.188 7.18701 10.791 7.18701 14.001C7.18701 17.211 9.79001 19.813 13 19.813C16.209 19.813 18.813 17.21 18.813 14C18.813 10.79 16.209 8.188 13 8.188Z" fill="#333333"/>
</svg>

<?xml version="1.0" encoding="utf-8"?>
<!-- Generator: Adobe Illustrator 15.0.0, SVG Export Plug-In . SVG Version: 6.00 Build 0)  -->
<!DOCTYPE svg PUBLIC "-//W3C//DTD SVG 1.1//EN" "http://www.w3.org/Graphics/SVG/1.1/DTD/svg11.dtd">
<svg version="1.1" id="Layer_1" xmlns="http://www.w3.org/2000/svg" xmlns:xlink="http://www.w3.org/1999/xlink" x="0px" y="0px"
	 width="26px" height="26px" viewBox="0 0 26 26" enable-background="new 0 0 26 26" xml:space="preserve">
<g>
	<path fill="#333333" d="M21,0H5C3.343,0,2,1.344,2,3v20c0,1.656,1.343,3,3,3h16c1.657,0,3-1.344,3-3V3C24,1.344,22.657,0,21,0z
		 M13,21.059c-3.897,0-7.059-3.16-7.059-7.059S9.103,6.941,13,6.941c3.896,0,7.059,3.16,7.059,7.059S16.896,21.059,13,21.059z
		 M20.5,5.121c-0.896,0-1.621-0.726-1.621-1.621s0.726-1.621,1.621-1.621c0.895,0,1.621,0.726,1.621,1.621S21.395,5.121,20.5,5.121z
		 M15.5,5.121c-0.896,0-1.621-0.726-1.621-1.621s0.726-1.621,1.621-1.621c0.895,0,1.621,0.726,1.621,1.621S16.395,5.121,15.5,5.121z
		"/>
</g>
<rect fill="none" width="26" height="26"/>
<path fill="#333333" d="M13,19.016c-2.867,0-5.193-2.325-5.193-5.193c2.354-1.525,2.906,0.142,5.193,0.142s3.108-1.563,5.193-0.142
	C18.193,16.69,15.867,19.016,13,19.016z"/>
<g>
	<path fill="#333333" d="M13,9.188c2.653,0,4.813,2.159,4.813,4.813S15.653,18.813,13,18.813S8.188,16.653,8.188,14
		S10.347,9.188,13,9.188 M13,8.188c-3.21,0-5.813,2.603-5.813,5.813S9.79,19.813,13,19.813c3.209,0,5.813-2.603,5.813-5.813
		S16.209,8.188,13,8.188L13,8.188z"/>
</g>
</svg>
